icons/modern/new-moon.svg

<svg width="32" height="32" viewBox="0 0 32 32" fill="none" xmlns="http://www.w3.org/2000/svg">
<g filter="url(#filter0_i_18_13875)">
<circle cx="16" cy="16" r="14" fill="url(#paint0_radial_18_13875)"/>
</g>
<circle cx="16" cy="16" r="14" fill="url(#paint1_radial_18_13875)"/>
<g filter="url(#filter1_f_18_13875)">
<ellipse cx="15.7038" cy="5.5" rx="1.70378" ry="1.5" fill="url(#paint2_radial_18_13875)"/>
<ellipse cx="15.7038" cy="5.5" rx="1.70378" ry="1.5" fill="url(#paint3_radial_18_13875)"/>
<path d="M15.7038 7.05C16.6662 7.05 17.4576 6.36184 17.4576 5.5C17.4576 4.63816 16.6662 3.95 15.7038 3.95C14.7414 3.95 13.95 4.63816 13.95 5.5C13.95 6.36184 14.7414 7.05 15.7038 7.05Z" stroke="url(#paint4_linear_18_13875)" stroke-width="0.1"/>
</g>
<g filter="url(#filter2_f_18_13875)">
<circle cx="9.5" cy="12.5" r="3.5" stroke="url(#paint5_linear_18_13875)" stroke-width="0.2"/>
</g>
<circle cx="9.5" cy="12.5" r="3.5" fill="url(#paint6_radial_18_13875)"/>
<circle cx="9.5" cy="12.5" r="3.5" fill="url(#paint7_radial_18_13875)"/>
<circle cx="9.5" cy="12.5" r="3.5" fill="url(#paint8_radial_18_13875)"/>
<g filter="url(#filter3_f_18_13875)">
<circle cx="22.5" cy="11.5" r="2.5" fill="url(#paint9_radial_18_13875)"/>
<circle cx="22.5" cy="11.5" r="2.6" stroke="url(#paint10_linear_18_13875)" stroke-width="0.2"/>
</g>
<g filter="url(#filter4_f_18_13875)">
<circle cx="16.5" cy="21.5" r="2.5" stroke="url(#paint11_linear_18_13875)" stroke-width="0.25"/>
</g>
<circle cx="16.5" cy="21.5" r="2.5" fill="url(#paint12_radial_18_13875)"/>
<circle cx="16.5" cy="21.5" r="2.5" fill="url(#paint13_radial_18_13875)"/>
<circle cx="16.5" cy="21.5" r="2.5" fill="url(#paint14_radial_18_13875)"/>
<circle cx="16.5" cy="21.5" r="2.5" fill="url(#paint15_radial_18_13875)"/>
<g filter="url(#filter5_f_18_13875)">
<path d="M10.267 28.5781C8.10136 27.5888 6.23192 26.0635 4.82824 24.172C5.46916 23.3592 6.38465 23 7.50007 23C9.43307 23 11.0001 24.567 11.0001 26.5C11.0001 27.3524 10.7734 27.9711 10.267 28.5781Z" stroke="url(#paint16_linear_18_13875)" stroke-width="0.2"/>
</g>
<path d="M10.1888 28.7407C8.02324 27.7514 6.15381 26.2261 4.75012 24.3346C5.39104 23.5218 6.38459 23 7.50001 23C9.433 23 11 24.567 11 26.5C11 27.3524 10.6953 28.1336 10.1888 28.7407Z" fill="url(#paint17_linear_18_13875)"/>
<g filter="url(#filter6_f_18_13875)">
<path d="M28.7201 21.2656C27.8333 23.4244 26.5745 25.2124 24.7982 26.6719C24.2497 26.054 24 25.3912 24 24.5C24 22.567 25.567 21 27.5 21C28.0193 21 28.2769 21.0627 28.7201 21.2656Z" stroke="url(#paint18_linear_18_13875)" stroke-width="0.25"/>
</g>
<path d="M28.9554 21.316C28.0686 23.4748 26.658 25.3631 24.8816 26.8226C24.3331 26.2047 24 25.3912 24 24.5C24 22.567 25.567 21 27.5 21C28.0193 21 28.5122 21.1131 28.9554 21.316Z" fill="url(#paint19_radial_18_13875)"/>
<path d="M28.9554 21.316C28.0686 23.4748 26.658 25.3631 24.8816 26.8226C24.3331 26.2047 24 25.3912 24 24.5C24 22.567 25.567 21 27.5 21C28.0193 21 28.5122 21.1131 28.9554 21.316Z" fill="url(#paint20_radial_18_13875)"/>
<path d="M28.9554 21.316C28.0686 23.4748 26.658 25.3631 24.8816 26.8226C24.3331 26.2047 24 25.3912 24 24.5C24 22.567 25.567 21 27.5 21C28.0193 21 28.5122 21.1131 28.9554 21.316Z" fill="url(#paint21_radial_18_13875)"/>
<defs>
<filter id="filter0_i_18_13875" x="2" y="-4" width="36" height="34" filterUnits="userSpaceOnUse" color-interpolation-filters="sRGB">
<feFlood flood-opacity="0" result="BackgroundImageFix"/>
<feBlend mode="normal" in="SourceGraphic" in2="BackgroundImageFix" result="shape"/>
<feColorMatrix in="SourceAlpha" type="matrix" values="0 0 0 0 0 0 0 0 0 0 0 0 0 0 0 0 0 0 127 0" result="hardAlpha"/>
<feOffset dx="8" dy="-6"/>
<feGaussianBlur stdDeviation="4"/>
<feComposite in2="hardAlpha" operator="arithmetic" k2="-1" k3="1"/>
<feColorMatrix type="matrix" values="0 0 0 0 0.329412 0 0 0 0 0.215686 0 0 0 0 0.447059 0 0 0 1 0"/>
<feBlend mode="normal" in2="shape" result="effect1_innerShadow_18_13875"/>
</filter>
<filter id="filter1_f_18_13875" x="13.7" y="3.6999" width="4.00754" height="3.6002" filterUnits="userSpaceOnUse" color-interpolation-filters="sRGB">
<feFlood flood-opacity="0" result="BackgroundImageFix"/>
<feBlend mode="normal" in="SourceGraphic" in2="BackgroundImageFix" result="shape"/>
<feGaussianBlur stdDeviation="0.1" result="effect1_foregroundBlur_18_13875"/>
</filter>
<filter id="filter2_f_18_13875" x="5.70002" y="8.6999" width="7.59995" height="7.6002" filterUnits="userSpaceOnUse" color-interpolation-filters="sRGB">
<feFlood flood-opacity="0" result="BackgroundImageFix"/>
<feBlend mode="normal" in="SourceGraphic" in2="BackgroundImageFix" result="shape"/>
<feGaussianBlur stdDeviation="0.1" result="effect1_foregroundBlur_18_13875"/>
</filter>
<filter id="filter3_f_18_13875" x="19.6" y="8.60005" width="5.80002" height="5.7999" filterUnits="userSpaceOnUse" color-interpolation-filters="sRGB">
<feFlood flood-opacity="0" result="BackgroundImageFix"/>
<feBlend mode="normal" in="SourceGraphic" in2="BackgroundImageFix" result="shape"/>
<feGaussianBlur stdDeviation="0.1" result="effect1_foregroundBlur_18_13875"/>
</filter>
<filter id="filter4_f_18_13875" x="13.625" y="18.625" width="5.75" height="5.75" filterUnits="userSpaceOnUse" color-interpolation-filters="sRGB">
<feFlood flood-opacity="0" result="BackgroundImageFix"/>
<feBlend mode="normal" in="SourceGraphic" in2="BackgroundImageFix" result="shape"/>
<feGaussianBlur stdDeviation="0.125" result="effect1_foregroundBlur_18_13875"/>
</filter>
<filter id="filter5_f_18_13875" x="4.50233" y="22.6999" width="6.79777" height="6.20078" filterUnits="userSpaceOnUse" color-interpolation-filters="sRGB">
<feFlood flood-opacity="0" result="BackgroundImageFix"/>
<feBlend mode="normal" in="SourceGraphic" in2="BackgroundImageFix" result="shape"/>
<feGaussianBlur stdDeviation="0.1" result="effect1_foregroundBlur_18_13875"/>
</filter>
<filter id="filter6_f_18_13875" x="23.625" y="20.625" width="5.50635" height="6.46973" filterUnits="userSpaceOnUse" color-interpolation-filters="sRGB">
<feFlood flood-opacity="0" result="BackgroundImageFix"/>
<feBlend mode="normal" in="SourceGraphic" in2="BackgroundImageFix" result="shape"/>
<feGaussianBlur stdDeviation="0.125" result="effect1_foregroundBlur_18_13875"/>
</filter>
<radialGradient id="paint0_radial_18_13875" cx="0" cy="0" r="1" gradientUnits="userSpaceOnUse" gradientTransform="translate(24.9821 11.4132) rotate(141.611) scale(23.6976)">
<stop offset="0.0785379" stop-color="#9E77C9"/>
<stop offset="1" stop-color="#6D3D9C"/>
</radialGradient>
<radialGradient id="paint1_radial_18_13875" cx="0" cy="0" r="1" gradientUnits="userSpaceOnUse" gradientTransform="translate(22.9201 11.2431) rotate(154.299) scale(23.217)">
<stop offset="0.672783" stop-color="#494054" stop-opacity="0"/>
<stop offset="1" stop-color="#494054"/>
</radialGradient>
<radialGradient id="paint2_radial_18_13875" cx="0" cy="0" r="1" gradientUnits="userSpaceOnUse" gradientTransform="translate(16.8308 5.5) rotate(-180) scale(2.51084 2.73027)">
<stop offset="0.285714" stop-color="#79529B"/>
<stop offset="1" stop-color="#A276C9"/>
</radialGradient>
<radialGradient id="paint3_radial_18_13875" cx="0" cy="0" r="1" gradientUnits="userSpaceOnUse" gradientTransform="translate(15.2616 5.5) scale(2.14598 1.88931)">
<stop offset="0.711237" stop-color="#664581" stop-opacity="0"/>
<stop offset="1" stop-color="#664581"/>
</radialGradient>
<linearGradient id="paint4_linear_18_13875" x1="17.0541" y1="4.29688" x2="14.4653" y2="6.84289" gradientUnits="userSpaceOnUse">
<stop stop-color="#7B52A5"/>
<stop offset="1" stop-color="#875CB4"/>
</linearGradient>
<linearGradient id="paint5_linear_18_13875" x1="13" y1="9.94493" x2="6.57245" y2="15.0647" gradientUnits="userSpaceOnUse">
<stop stop-color="#603D83"/>
<stop offset="1" stop-color="#603D83" stop-opacity="0"/>
</linearGradient>
<radialGradient id="paint6_radial_18_13875" cx="0" cy="0" r="1" gradientUnits="userSpaceOnUse" gradientTransform="translate(8.06759 12.2208) rotate(10.3889) scale(5.47365 6.37244)">
<stop stop-color="#6D4A8D"/>
<stop offset="1" stop-color="#60427C"/>
</radialGradient>
<radialGradient id="paint7_radial_18_13875" cx="0" cy="0" r="1" gradientUnits="userSpaceOnUse" gradientTransform="translate(9.79744 12.5) rotate(-166.271) scale(3.90912 4.32954)">
<stop offset="0.886167" stop-color="#8260A1" stop-opacity="0"/>
<stop offset="1" stop-color="#8260A1"/>
</radialGradient>
<radialGradient id="paint8_radial_18_13875" cx="0" cy="0" r="1" gradientUnits="userSpaceOnUse" gradientTransform="translate(11.5165 8.62535) rotate(109.781) scale(7.83707)">
<stop offset="0.819666" stop-color="#614879" stop-opacity="0"/>
<stop offset="1" stop-color="#614879"/>
</radialGradient>
<radialGradient id="paint9_radial_18_13875" cx="0" cy="0" r="1" gradientUnits="userSpaceOnUse" gradientTransform="translate(20 13.3955) rotate(-37.9457) scale(8.77059 2.88619)">
<stop offset="0.199589" stop-color="#B085D8"/>
<stop offset="1" stop-color="#8E61B7"/>
</radialGradient>
<linearGradient id="paint10_linear_18_13875" x1="20.5766" y1="9" x2="23.6461" y2="14" gradientUnits="userSpaceOnUse">
<stop stop-color="#A57CD3"/>
<stop offset="0.492222" stop-color="#A57CD3" stop-opacity="0"/>
<stop offset="1" stop-color="#A57CD3"/>
</linearGradient>
<linearGradient id="paint11_linear_18_13875" x1="19" y1="19.6749" x2="14.4089" y2="23.3319" gradientUnits="userSpaceOnUse">
<stop stop-color="#683B92"/>
<stop offset="1" stop-color="#683B92" stop-opacity="0"/>
</linearGradient>
<radialGradient id="paint12_radial_18_13875" cx="0" cy="0" r="1" gradientUnits="userSpaceOnUse" gradientTransform="translate(15.4722 23.5099) rotate(-58.7173) scale(4.42304 5.14932)">
<stop stop-color="#724D94"/>
<stop offset="1" stop-color="#6F4197"/>
</radialGradient>
<radialGradient id="paint13_radial_18_13875" cx="0" cy="0" r="1" gradientUnits="userSpaceOnUse" gradientTransform="translate(16.812 21.0218) rotate(118.54) scale(3.1046 3.20092)">
<stop offset="0.788553" stop-color="#8B72A3" stop-opacity="0"/>
<stop offset="1" stop-color="#8B72A3"/>
</radialGradient>
<radialGradient id="paint14_radial_18_13875" cx="0" cy="0" r="1" gradientUnits="userSpaceOnUse" gradientTransform="translate(14.6694 23.6415) rotate(-50.5275) scale(5.54168 3.88163)">
<stop offset="0.800386" stop-color="#64398C" stop-opacity="0"/>
<stop offset="1" stop-color="#64398C"/>
</radialGradient>
<radialGradient id="paint15_radial_18_13875" cx="0" cy="0" r="1" gradientUnits="userSpaceOnUse" gradientTransform="translate(15.6759 20.8735) rotate(40.0794) scale(3.85246 4.08614)">
<stop offset="0.824989" stop-color="#664289" stop-opacity="0"/>
<stop offset="1" stop-color="#664289"/>
</radialGradient>
<linearGradient id="paint16_linear_18_13875" x1="5.69622" y1="23.6118" x2="11.1485" y2="27.5829" gradientUnits="userSpaceOnUse">
<stop stop-color="#372447"/>
<stop offset="0.213203" stop-color="#372447" stop-opacity="0"/>
<stop offset="0.805979" stop-color="#654E72" stop-opacity="0"/>
<stop offset="1" stop-color="#654E72"/>
</linearGradient>
<linearGradient id="paint17_linear_18_13875" x1="5.36069" y1="24.5312" x2="11" y2="28.375" gradientUnits="userSpaceOnUse">
<stop stop-color="#50425C"/>
<stop offset="1" stop-color="#64497D"/>
</linearGradient>
<linearGradient id="paint18_linear_18_13875" x1="27.8294" y1="20.625" x2="23.545" y2="25.4955" gradientUnits="userSpaceOnUse">
<stop stop-color="#7045A0"/>
<stop offset="0.494792" stop-color="#7045A0" stop-opacity="0"/>
<stop offset="1" stop-color="#7F58A9"/>
</linearGradient>
<radialGradient id="paint19_radial_18_13875" cx="0" cy="0" r="1" gradientUnits="userSpaceOnUse" gradientTransform="translate(27.4556 20.4694) rotate(105.599) scale(5.89475 5.01685)">
<stop stop-color="#875CB5"/>
<stop offset="1" stop-color="#9464BF"/>
</radialGradient>
<radialGradient id="paint20_radial_18_13875" cx="0" cy="0" r="1" gradientUnits="userSpaceOnUse" gradientTransform="translate(28.0482 22.625) rotate(131.539) scale(5.60792 3.71093)">
<stop offset="0.856697" stop-color="#9979BA" stop-opacity="0"/>
<stop offset="0.925884" stop-color="#9979BA"/>
</radialGradient>
<radialGradient id="paint21_radial_18_13875" cx="0" cy="0" r="1" gradientUnits="userSpaceOnUse" gradientTransform="translate(27.3763 25.4531) rotate(-92.086) scale(4.72188 4.75751)">
<stop offset="0.850895" stop-color="#663F90" stop-opacity="0"/>
<stop offset="0.929296" stop-color="#663F90"/>
</radialGradient>
</defs>
</svg>

<svg width="32" height="32" fill="none" xmlns="http://www.w3.org/2000/svg"><g filter="url(#a)"><circle cx="16" cy="16" r="14" fill="url(#b)"/></g><circle cx="16" cy="16" r="14" fill="url(#c)"/><g filter="url(#d)"><ellipse cx="15.704" cy="5.5" rx="1.704" ry="1.5" fill="url(#e)"/><ellipse cx="15.704" cy="5.5" rx="1.704" ry="1.5" fill="url(#f)"/><path d="M15.704 7.05c.962 0 1.754-.688 1.754-1.55 0-.862-.792-1.55-1.754-1.55-.963 0-1.754.688-1.754 1.55 0 .862.791 1.55 1.754 1.55Z" stroke="url(#g)" stroke-width=".1"/></g><g filter="url(#h)"><circle cx="9.5" cy="12.5" r="3.5" stroke="url(#i)" stroke-width=".2"/></g><circle cx="9.5" cy="12.5" r="3.5" fill="url(#j)"/><circle cx="9.5" cy="12.5" r="3.5" fill="url(#k)"/><circle cx="9.5" cy="12.5" r="3.5" fill="url(#l)"/><g filter="url(#m)"><circle cx="22.5" cy="11.5" r="2.5" fill="url(#n)"/><circle cx="22.5" cy="11.5" r="2.6" stroke="url(#o)" stroke-width=".2"/></g><g filter="url(#p)"><circle cx="16.5" cy="21.5" r="2.5" stroke="url(#q)" stroke-width=".25"/></g><circle cx="16.5" cy="21.5" r="2.5" fill="url(#r)"/><circle cx="16.5" cy="21.5" r="2.5" fill="url(#s)"/><circle cx="16.5" cy="21.5" r="2.5" fill="url(#t)"/><circle cx="16.5" cy="21.5" r="2.5" fill="url(#u)"/><g filter="url(#v)"><path d="M10.267 28.578a14.054 14.054 0 0 1-5.439-4.406C5.47 23.359 6.385 23 7.5 23a3.5 3.5 0 0 1 3.5 3.5c0 .852-.227 1.471-.733 2.078Z" stroke="url(#w)" stroke-width=".2"/></g><path d="M10.189 28.74a14.054 14.054 0 0 1-5.439-4.405 3.5 3.5 0 1 1 5.439 4.406Z" fill="url(#x)"/><g filter="url(#y)"><path d="M28.72 21.266c-.887 2.158-2.145 3.946-3.922 5.406-.548-.618-.798-1.28-.798-2.172a3.5 3.5 0 0 1 3.5-3.5c.52 0 .777.063 1.22.266Z" stroke="url(#z)" stroke-width=".25"/></g><path d="M28.955 21.316a14.04 14.04 0 0 1-4.073 5.507 3.5 3.5 0 0 1 4.074-5.507Z" fill="url(#A)"/><path d="M28.955 21.316a14.04 14.04 0 0 1-4.073 5.507 3.5 3.5 0 0 1 4.074-5.507Z" fill="url(#B)"/><path d="M28.955 21.316a14.04 14.04 0 0 1-4.073 5.507 3.5 3.5 0 0 1 4.074-5.507Z" fill="url(#C)"/><defs><radialGradient id="b" cx="0" cy="0" r="1" gradientUnits="userSpaceOnUse" gradientTransform="rotate(141.611 10.504 10.055) scale(23.6976)"><stop offset=".079" stop-color="#9E77C9"/><stop offset="1" stop-color="#6D3D9C"/></radialGradient><radialGradient id="c" cx="0" cy="0" r="1" gradientUnits="userSpaceOnUse" gradientTransform="rotate(154.299 10.178 8.236) scale(23.217)"><stop offset=".673" stop-color="#494054" stop-opacity="0"/><stop offset="1" stop-color="#494054"/></radialGradient><radialGradient id="e" cx="0" cy="0" r="1" gradientUnits="userSpaceOnUse" gradientTransform="matrix(-2.51084 0 0 -2.73027 16.83 5.5)"><stop offset=".286" stop-color="#79529B"/><stop offset="1" stop-color="#A276C9"/></radialGradient><radialGradient id="f" cx="0" cy="0" r="1" gradientUnits="userSpaceOnUse" gradientTransform="matrix(2.14598 0 0 1.88931 15.262 5.5)"><stop offset=".711" stop-color="#664581" stop-opacity="0"/><stop offset="1" stop-color="#664581"/></radialGradient><radialGradient id="j" cx="0" cy="0" r="1" gradientUnits="userSpaceOnUse" gradientTransform="matrix(5.38392 .98706 -1.14913 6.26797 8.068 12.22)"><stop stop-color="#6D4A8D"/><stop offset="1" stop-color="#60427C"/></radialGradient><radialGradient id="k" cx="0" cy="0" r="1" gradientUnits="userSpaceOnUse" gradientTransform="matrix(-3.79743 -.92775 1.02753 -4.20584 9.797 12.5)"><stop offset=".886" stop-color="#8260A1" stop-opacity="0"/><stop offset="1" stop-color="#8260A1"/></radialGradient><radialGradient id="l" cx="0" cy="0" r="1" gradientUnits="userSpaceOnUse" gradientTransform="rotate(109.781 2.726 8.361) scale(7.83707)"><stop offset=".82" stop-color="#614879" stop-opacity="0"/><stop offset="1" stop-color="#614879"/></radialGradient><radialGradient id="n" cx="0" cy="0" r="1" gradientUnits="userSpaceOnUse" gradientTransform="matrix(6.91643 -5.39316 1.77476 2.27603 20 13.396)"><stop offset=".2" stop-color="#B085D8"/><stop offset="1" stop-color="#8E61B7"/></radialGradient><radialGradient id="r" cx="0" cy="0" r="1" gradientUnits="userSpaceOnUse" gradientTransform="matrix(2.29671 -3.78 4.40069 2.67384 15.472 23.51)"><stop stop-color="#724D94"/><stop offset="1" stop-color="#6F4197"/></radialGradient><radialGradient id="s" cx="0" cy="0" r="1" gradientUnits="userSpaceOnUse" gradientTransform="rotate(118.54 2.158 15.508) scale(3.1046 3.20092)"><stop offset=".789" stop-color="#8B72A3" stop-opacity="0"/><stop offset="1" stop-color="#8B72A3"/></radialGradient><radialGradient id="t" cx="0" cy="0" r="1" gradientUnits="userSpaceOnUse" gradientTransform="matrix(3.52289 -4.27779 2.99635 2.46758 14.67 23.642)"><stop offset=".8" stop-color="#64398C" stop-opacity="0"/><stop offset="1" stop-color="#64398C"/></radialGradient><radialGradient id="u" cx="0" cy="0" r="1" gradientUnits="userSpaceOnUse" gradientTransform="rotate(40.079 -20.775 31.925) scale(3.85246 4.08614)"><stop offset=".825" stop-color="#664289" stop-opacity="0"/><stop offset="1" stop-color="#664289"/></radialGradient><radialGradient id="A" cx="0" cy="0" r="1" gradientUnits="userSpaceOnUse" gradientTransform="rotate(105.599 5.96 20.655) scale(5.89475 5.01685)"><stop stop-color="#875CB5"/><stop offset="1" stop-color="#9464BF"/></radialGradient><radialGradient id="B" cx="0" cy="0" r="1" gradientUnits="userSpaceOnUse" gradientTransform="rotate(131.539 8.933 17.624) scale(5.60792 3.71093)"><stop offset=".857" stop-color="#9979BA" stop-opacity="0"/><stop offset=".926" stop-color="#9979BA"/></radialGradient><radialGradient id="C" cx="0" cy="0" r="1" gradientUnits="userSpaceOnUse" gradientTransform="rotate(-92.086 25.96 -.472) scale(4.72188 4.75751)"><stop offset=".851" stop-color="#663F90" stop-opacity="0"/><stop offset=".929" stop-color="#663F90"/></radialGradient><linearGradient id="g" x1="17.054" y1="4.297" x2="14.465" y2="6.843" gradientUnits="userSpaceOnUse"><stop stop-color="#7B52A5"/><stop offset="1" stop-color="#875CB4"/></linearGradient><linearGradient id="i" x1="13" y1="9.945" x2="6.572" y2="15.065" gradientUnits="userSpaceOnUse"><stop stop-color="#603D83"/><stop offset="1" stop-color="#603D83" stop-opacity="0"/></linearGradient><linearGradient id="o" x1="20.577" y1="9" x2="23.646" y2="14" gradientUnits="userSpaceOnUse"><stop stop-color="#A57CD3"/><stop offset=".492" stop-color="#A57CD3" stop-opacity="0"/><stop offset="1" stop-color="#A57CD3"/></linearGradient><linearGradient id="q" x1="19" y1="19.675" x2="14.409" y2="23.332" gradientUnits="userSpaceOnUse"><stop stop-color="#683B92"/><stop offset="1" stop-color="#683B92" stop-opacity="0"/></linearGradient><linearGradient id="w" x1="5.696" y1="23.612" x2="11.149" y2="27.583" gradientUnits="userSpaceOnUse"><stop stop-color="#372447"/><stop offset=".213" stop-color="#372447" stop-opacity="0"/><stop offset=".806" stop-color="#654E72" stop-opacity="0"/><stop offset="1" stop-color="#654E72"/></linearGradient><linearGradient id="x" x1="5.361" y1="24.531" x2="11" y2="28.375" gradientUnits="userSpaceOnUse"><stop stop-color="#50425C"/><stop offset="1" stop-color="#64497D"/></linearGradient><linearGradient id="z" x1="27.829" y1="20.625" x2="23.545" y2="25.495" gradientUnits="userSpaceOnUse"><stop stop-color="#7045A0"/><stop offset=".495" stop-color="#7045A0" stop-opacity="0"/><stop offset="1" stop-color="#7F58A9"/></linearGradient><filter id="a" x="2" y="-4" width="36" height="34" filterUnits="userSpaceOnUse" color-interpolation-filters="sRGB"><feFlood flood-opacity="0" result="BackgroundImageFix"/><feBlend in="SourceGraphic" in2="BackgroundImageFix" result="shape"/><feColorMatrix in="SourceAlpha" values="0 0 0 0 0 0 0 0 0 0 0 0 0 0 0 0 0 0 127 0" result="hardAlpha"/><feOffset dx="8" dy="-6"/><feGaussianBlur stdDeviation="4"/><feComposite in2="hardAlpha" operator="arithmetic" k2="-1" k3="1"/><feColorMatrix values="0 0 0 0 0.329412 0 0 0 0 0.215686 0 0 0 0 0.447059 0 0 0 1 0"/><feBlend in2="shape" result="effect1_innerShadow_18_13875"/></filter><filter id="d" x="13.7" y="3.7" width="4.008" height="3.6" filterUnits="userSpaceOnUse" color-interpolation-filters="sRGB"><feFlood flood-opacity="0" result="BackgroundImageFix"/><feBlend in="SourceGraphic" in2="BackgroundImageFix" result="shape"/><feGaussianBlur stdDeviation=".1" result="effect1_foregroundBlur_18_13875"/></filter><filter id="h" x="5.7" y="8.7" width="7.6" height="7.6" filterUnits="userSpaceOnUse" color-interpolation-filters="sRGB"><feFlood flood-opacity="0" result="BackgroundImageFix"/><feBlend in="SourceGraphic" in2="BackgroundImageFix" result="shape"/><feGaussianBlur stdDeviation=".1" result="effect1_foregroundBlur_18_13875"/></filter><filter id="m" x="19.6" y="8.6" width="5.8" height="5.8" filterUnits="userSpaceOnUse" color-interpolation-filters="sRGB"><feFlood flood-opacity="0" result="BackgroundImageFix"/><feBlend in="SourceGraphic" in2="BackgroundImageFix" result="shape"/><feGaussianBlur stdDeviation=".1" result="effect1_foregroundBlur_18_13875"/></filter><filter id="p" x="13.625" y="18.625" width="5.75" height="5.75" filterUnits="userSpaceOnUse" color-interpolation-filters="sRGB"><feFlood flood-opacity="0" result="BackgroundImageFix"/><feBlend in="SourceGraphic" in2="BackgroundImageFix" result="shape"/><feGaussianBlur stdDeviation=".125" result="effect1_foregroundBlur_18_13875"/></filter><filter id="v" x="4.502" y="22.7" width="6.798" height="6.201" filterUnits="userSpaceOnUse" color-interpolation-filters="sRGB"><feFlood flood-opacity="0" result="BackgroundImageFix"/><feBlend in="SourceGraphic" in2="BackgroundImageFix" result="shape"/><feGaussianBlur stdDeviation=".1" result="effect1_foregroundBlur_18_13875"/></filter><filter id="y" x="23.625" y="20.625" width="5.506" height="6.47" filterUnits="userSpaceOnUse" color-interpolation-filters="sRGB"><feFlood flood-opacity="0" result="BackgroundImageFix"/><feBlend in="SourceGraphic" in2="BackgroundImageFix" result="shape"/><feGaussianBlur stdDeviation=".125" result="effect1_foregroundBlur_18_13875"/></filter></defs></svg>
